!!!SOCIAL_FUNCTION:	songs with hunting dance
!!!PDT:	1956
!!!OTL: No_54_Cow_Creek_Hunting_Dance_Song_(u).krn
!!!LANG: Non-Tone
!!!LING_GROUP: Muskogean
!!!REG: Florida
**kern
*staff1
=1-
*clefF4
*k[f#c#g#d#]
*M2/4
(8c#\L
8B\J)
4B\
=2
(8c#\L
8B\J)
4B\
=3
(8c#\L
8B\J)
4B\
=4
8B\L
8A\J
8G#\L
8E\J
=5||
*M3/4
2A\
4r
=6||
*M2/4
(8c#\L
8B\J)
4B\
=7
(8c#\L
8B\J)
4B\
=8
(8c#\L
8B\J)
4B\
=9
8B\L
8A\J
8G#\L
8E\J
=10
2A\
=11
4G#\
4B\
=12
8B\L
8A\J
8G#\L
8E\J
=13||
*M3/4
2A\
4A\
=14
2G#\
4E\
=15
4E\
4r
4E\
=16||
*M2/4
2E\
=17||
*M3/4
(4B\
4G#\)
4B\
=18||
*M2/4
8B\L
8A\J
8G#\L
8E\J
=19||
*M3/4
2A\
4A\
=20
2G#\
4E\
=21
4E\
4r
4E\
=22||
*M2/4
2E\
=23
(8B\L
8G#\J)
4G#\
=24
8G#\L
8E\J
8E/L
8BB/J
=25
2E\
=26
4G#\
4G#\
=27
8G#\L
8E\J
8E/L
8BB/J
=28
2E\
=29
8.G#\L
16G#\Jk
4E\
=30
2E\
=31
8G#\L
8E\J
8E/L
8BB/J
=32
2E\
=33
4G#\
8E\L
8E\J
=34
2E\
=35||
*M3/4
8G#\L
8G#\J
8E/L
8BB/J
4E\
=36||
*M2/4
4B\
4B\
=37
(8c#\L
8B\J)
4B\
=38
8c#\L
8B\J
4B\
=39
8B\L
8A\J
8G#\L
8E\J
=40
2A\
=41
4G#\
4B\
=42
8B\L
8A\J
8G#\L
8E\J
=43||
*M3/4
2A\
4A\
=44
2G#\
4E\
=45||
*M2/4
4E\
4r
=46
4E\
4E\
==
*-
